X:2403
T:Häckla Henriks Låt efter Olof Jönsson
R:Polska
O:
M:3/4
L:1/8
K:Am
AB|c3 BA2|B2G2G2|A4Ac|e3de^f|g3^fed|^f2d2cd|e6|
|e2c2c2|c2e2g2|^f2d2d2|d2^f2a2|g3^fed|c3BAG|B2G2G2|A6 
(:musicend:)
(:music:)
